icons/1_Primary/hi.svg

<svg width="1024" height="1024" fill="none" xmlns="http://www.w3.org/2000/svg"><g clip-path="url(#a)"><path d="M512 1024c282.77 0 512-229.23 512-512S794.77 0 512 0 0 229.23 0 512s229.23 512 512 512Z" fill="#56595B"/><path d="M680.42 463.64c14.33 0 25.95-11.62 25.95-25.95s-11.62-25.95-25.95-25.95-25.95 11.62-25.95 25.95 11.62 25.95 25.95 25.95Zm130.13-.87a18.536 18.536 0 0 0-14.089.12c-4.5 1.9-8.07 5.49-9.93 10-11.38 28.17-57.88 74.18-94.531 85.75-3.359 1.54-7 2.38-10.7 2.48-3.7.1-7.37-.55-10.81-1.9-8.49-5.5-6.95-34.34 0-56.53a18.334 18.334 0 0 0-8.31-21.88 18.266 18.266 0 0 0-12.26-2.09c-4.21.75-8.019 2.96-10.769 6.22-47.17 53.83-89.611 92.7-110.45 106.11 0-5.69 0-12.44.679-17.36 1.35-23.05 2.411-42.93-12.349-52.47a25.59 25.59 0 0 0-13.411-3.8c-4.74 0-9.38 1.31-13.41 3.8-27.59 14.18-73.5 59.03-107.259 91.93 2.119-9.65 4.629-19.87 7.229-29.71a520.512 520.512 0 0 1 27.11-79.77c26.241-63.28 58.74-113.34 81.61-123.57 1.39-.66 2.9-1.05 4.44-1.16.77-.04 1.52.2 2.12.68 2.41 1.54 2.51 2.51 2.6 3.38 1.54 15.92-28.94 54.02-64.53 92.8a635.476 635.476 0 0 0-35.98 90.29C515.39 457.57 547.9 412.72 544.62 379.44a40.346 40.346 0 0 0-5.789-17.43 40.374 40.374 0 0 0-12.921-13.05 42.531 42.531 0 0 0-41.959-2.41c-46.59 20.74-98.391 121.15-126.461 217.33-23.54 21.7-47.07 32.41-70.03 32.03a83.264 83.264 0 0 1-54.02-23.73 18.429 18.429 0 0 0-12.59-5.36c-4.73-.1-9.32 1.62-12.81 4.8a18.434 18.434 0 0 0-5.97 12.31c-.33 4.72 1.16 9.38 4.17 13.03a119.444 119.444 0 0 0 79.87 35.69c14.87.28 29.64-2.34 43.5-7.72 3.38-12.83 5.501-20.16 5.591-20.35a6.07 6.07 0 0 1 2.97-3.6c.71-.38 1.479-.61 2.28-.69.8-.08 1.599 0 2.369.24.77.23 1.481.62 2.101 1.13a6.24 6.24 0 0 1 1.509 1.84c.38.71.61 1.48.69 2.28.08.8 0 1.6-.24 2.37 0 0-1.06 3.76-2.89 10.32-1.25 6.46-2.32 12.93-3.28 19.29-4.34 22.67 0 28.94 2.8 32.12 1.86 2.49 4.28 4.51 7.06 5.9 2.78 1.39 5.85 2.11 8.95 2.11 9.65 0 13.5-3.57 48.23-37.43a998.469 998.469 0 0 1 84.98-77.17l7.14-5.79a6.254 6.254 0 0 1 4.521-1.32c1.619.16 3.109.95 4.169 2.19.98 1.3 1.42 2.92 1.24 4.53-.18 1.61-.97 3.1-2.21 4.15-4.53 3.57-9.65 8.1-15.72 13.02-.87 19.29-.48 36.75 11.09 46.78a25.677 25.677 0 0 0 10.621 5.5c3.92.97 8.019 1 11.959.09 18.33-3.67 46.69-26.53 73.601-52.09 0 0 29.519-30.87 37.909-40.8a6.21 6.21 0 0 1 4.21-2.25 6.225 6.225 0 0 1 6.821 5.59c.16 1.65-.34 3.29-1.38 4.57-3.18 3.76-9.161 10.32-15.43 17.07a46.486 46.486 0 0 0 19.289 26.33 59.585 59.585 0 0 0 25.79 7.81c9.08.6 18.18-.88 26.59-4.34 48.23-15.24 102.44-69.93 117.49-106.88a18.49 18.49 0 0 0 1.61-7.18c.05-2.48-.39-4.94-1.31-7.24s-2.29-4.4-4.029-6.16a18.463 18.463 0 0 0-6.11-4.1h-.041Z" fill="#fff"/></g><defs><clipPath id="a"><path fill="#fff" d="M0 0h1024v1024H0z"/></clipPath></defs></svg>

<svg width="1024" height="1024" viewBox="0 0 1024 1024" fill="none" xmlns="http://www.w3.org/2000/svg">
<g clip-path="url(#clip0_2_2403)">
<path d="M512 1024C794.77 1024 1024 794.77 1024 512C1024 229.23 794.77 0 512 0C229.23 0 0 229.23 0 512C0 794.77 229.23 1024 512 1024Z" fill="#56595B"/>
<path d="M680.42 463.64C694.75 463.64 706.37 452.02 706.37 437.69C706.37 423.36 694.75 411.74 680.42 411.74C666.09 411.74 654.47 423.36 654.47 437.69C654.47 452.02 666.09 463.64 680.42 463.64ZM810.55 462.77C806.021 460.954 800.958 460.997 796.461 462.89C791.961 464.79 788.391 468.38 786.531 472.89C775.151 501.06 728.651 547.07 692 558.64C688.641 560.18 685 561.02 681.3 561.12C677.6 561.22 673.93 560.57 670.49 559.22C662 553.72 663.54 524.88 670.49 502.69C671.872 498.646 671.798 494.247 670.281 490.252C668.764 486.257 665.898 482.917 662.18 480.81C658.464 478.701 654.126 477.961 649.92 478.72C645.71 479.47 641.901 481.68 639.151 484.94C591.981 538.77 549.54 577.64 528.701 591.05C528.701 585.36 528.701 578.61 529.38 573.69C530.73 550.64 531.791 530.76 517.031 521.22C513.001 518.74 508.36 517.42 503.62 517.42C498.88 517.42 494.24 518.73 490.21 521.22C462.62 535.4 416.71 580.25 382.951 613.15C385.07 603.5 387.58 593.28 390.18 583.44C397.046 556.161 406.113 529.484 417.29 503.67C443.531 440.39 476.03 390.33 498.9 380.1C500.29 379.44 501.8 379.05 503.34 378.94C504.11 378.9 504.86 379.14 505.46 379.62C507.87 381.16 507.97 382.13 508.06 383C509.6 398.92 479.12 437.02 443.53 475.8C429.249 504.934 417.221 535.119 407.55 566.09C515.39 457.57 547.9 412.72 544.62 379.44C544.056 373.262 542.075 367.298 538.831 362.01C535.584 356.725 531.162 352.26 525.91 348.96C519.724 344.959 512.604 342.633 505.249 342.211C497.893 341.788 490.554 343.283 483.951 346.55C437.361 367.29 385.56 467.7 357.49 563.88C333.95 585.58 310.42 596.29 287.46 595.91C267.161 594.859 247.947 586.419 233.44 572.18C230.087 568.844 225.58 566.925 220.85 566.82C216.12 566.72 211.53 568.44 208.04 571.62C204.545 574.805 202.407 579.213 202.07 583.93C201.74 588.65 203.23 593.31 206.24 596.96C227.392 618.529 255.932 631.282 286.11 632.65C300.98 632.93 315.75 630.31 329.61 624.93C332.99 612.1 335.111 604.77 335.201 604.58C335.434 603.814 335.816 603.101 336.326 602.483C336.836 601.866 337.463 601.355 338.171 600.98C338.881 600.6 339.65 600.37 340.451 600.29C341.251 600.21 342.05 600.29 342.82 600.53C343.59 600.76 344.301 601.15 344.921 601.66C345.54 602.17 346.05 602.8 346.43 603.5C346.81 604.21 347.04 604.98 347.12 605.78C347.2 606.58 347.12 607.38 346.88 608.15C346.88 608.15 345.82 611.91 343.99 618.47C342.74 624.93 341.67 631.4 340.71 637.76C336.37 660.43 340.71 666.7 343.51 669.88C345.37 672.37 347.79 674.39 350.57 675.78C353.35 677.17 356.42 677.89 359.52 677.89C369.17 677.89 373.02 674.32 407.75 640.46C434.57 613.13 462.951 587.36 492.73 563.29L499.87 557.5C501.147 556.488 502.769 556.014 504.391 556.18C506.01 556.34 507.5 557.13 508.56 558.37C509.54 559.67 509.98 561.29 509.8 562.9C509.62 564.51 508.83 566 507.59 567.05C503.06 570.62 497.94 575.15 491.87 580.07C491 599.36 491.39 616.82 502.96 626.85C506.02 629.49 509.651 631.38 513.581 632.35C517.501 633.32 521.6 633.35 525.54 632.44C543.87 628.77 572.23 605.91 599.141 580.35C599.141 580.35 628.66 549.48 637.05 539.55C637.569 538.916 638.208 538.391 638.931 538.005C639.653 537.619 640.445 537.379 641.26 537.3C642.907 537.136 644.55 537.633 645.831 538.68C646.464 539.199 646.99 539.838 647.376 540.561C647.762 541.283 648.001 542.075 648.081 542.89C648.241 544.54 647.741 546.18 646.701 547.46C643.521 551.22 637.54 557.78 631.271 564.53C634.307 575.35 641.159 584.703 650.56 590.86C658.448 595.399 667.27 598.07 676.35 598.67C685.43 599.27 694.53 597.79 702.94 594.33C751.17 579.09 805.38 524.4 820.43 487.45C821.442 485.189 821.99 482.747 822.04 480.27C822.09 477.79 821.65 475.33 820.73 473.03C819.81 470.73 818.44 468.63 816.701 466.87C814.96 465.107 812.882 463.713 810.591 462.77H810.55Z" fill="white"/>
</g>
<defs>
<clipPath id="clip0_2_2403">
<rect width="1024" height="1024" fill="white"/>
</clipPath>
</defs>
</svg>
